public/library/bitso-text-dark.svg

<svg width="118" height="28" viewBox="0 0 118 28" fill="none" xmlns="http://www.w3.org/2000/svg">
<path d="M0 13.9911C0 21.5105 6.61581 27.5 13.675 27.5C14.3214 27.5 15.3649 27.359 16.7811 27.0811C16.9572 27.0468 17.0844 26.8945 17.0844 26.718L20.0937C17.0844 19.8892 16.9161 19.7229 16.7104 19.7229H13.4899C10.1756 19.7229 7.61693 17.0684 7.61693 13.7944V0.869428C7.61693 0.665037 7.44986 0.5 7.24296 0.5H0.37397C0.167066 0.5 0 0.665037 0 0.869428V13.9911Z" fill="#5463FF"/>
<path d="M27.0785 13.8642C27.0785 6.34483 21.2865 0.5 13.6761 0.5H10.6445C10.4376 0.5 10.2705 0.665037 10.2705 0.868158C10.2705 2.09832 10.2705 6.15315 10.2705 7.39601C10.2705 7.59912 10.4376 7.76415 10.6432 7.76415H13.4666C16.9994 7.76415 19.7341 10.453 19.7341 13.9429L19.7368 25.5932C19.7368 25.8737 20.049 26.0503 20.2906 25.9017C24.5289 23.3031 27.0785 18.4191 27.0785 13.8642Z" fill="#5463FF"/>
<path d="M63.2128 0.809723H57.5903V5.5704H63.2128V0.809723Z" fill="#5463FF"/>
<path d="M63.133 8.68065H57.6711V26.6786H63.133V8.68065Z" fill="#5463FF"/>
<path d="M90.2633 15.1844L86.0868 14.3122C84.6808 13.9948 83.7169 13.5187 83.7169 12.3292C83.7169 11.24 84.9866 10.5887 86.7692 10.5887C88.8767 10.5887 90.374 11.3441 91.0666 13.1227L96.0863 11.9725C95.1224 8.9574 92.272 6.49835 86.9298 6.49835C82.1106 6.49835 78.858 8.9574 78.858 12.5679C78.858 15.9397 81.2276 17.1305 85.2026 18.0027L88.576 18.7568C90.343 19.1528 91.3468 19.7482 91.3468 20.9785C91.3468 22.3571 90.0166 23.1163 87.9733 23.1163C85.6343 23.1163 83.9534 22.0817 83.2351 19.8282L78.3362 20.8997C79.2601 24.311 82.1915 27.208 87.8127 27.208C93.4337 27.208 96.2457 24.3122 96.2457 20.7016C96.2457 17.6079 94.1174 15.9803 90.2621 15.1869L90.2633 15.1844Z" fill="#5463FF"/>
<path d="M71.7575 0.809723H66.7905V20.1749C66.7905 24.4595 68.866 26.6812 73.2431 26.6812H76.1745V22.1984H73.8458C72.5208 22.1984 71.7575 21.4838 71.7575 20.1356V10.8059H76.1745V6.48191H71.7575V0.809723Z" fill="#5463FF"/>
<path d="M107.889 6.49713C102.305 6.49713 97.7773 11.1321 97.7773 16.8513C97.7773 22.5704 102.305 27.2055 107.889 27.2055C113.472 27.2055 118 22.5704 118 16.8513C118 11.1321 113.472 6.49713 107.889 6.49713ZM107.889 22.5375C104.865 22.5375 102.413 19.9907 102.413 16.85C102.413 13.7092 104.865 11.1626 107.889 11.1626C110.913 11.1626 113.364 13.7092 113.364 16.85C113.364 19.9907 110.913 22.5375 107.889 22.5375Z" fill="#5463FF"/>
<path d="M45.5565 6.49712C43.4091 6.49712 40.9056 7.18392 39.2683 8.35315V0.795731H33.8477V26.6837H38.8481V24.6283L39.2415 24.6232L39.2812 24.6753C40.8401 26.4971 43.215 27.2067 45.5553 27.2067C51.139 27.2067 55.6666 22.5717 55.6666 16.8525C55.6666 11.1334 51.139 6.49839 45.5553 6.49839L45.5565 6.49712ZM45.0412 22.7266C42.0172 22.7266 39.5652 20.0962 39.5652 16.8513C39.5652 13.6064 42.0172 10.976 45.0412 10.976C48.065 10.976 50.7806 13.6064 50.7806 16.8513C50.7806 20.0962 48.065 22.7266 45.0412 22.7266Z" fill="#5463FF"/>
</svg>

<svg xmlns="http://www.w3.org/2000/svg" width="118" height="28" fill="none" viewBox="0 0 118 28"><path fill="#5463ff" d="M0 13.991C0 21.511 6.616 27.5 13.675 27.5c.646 0 1.69-.141 3.106-.419a.37.37 0 0 0 .303-.363M27.079 13.864C27.079 6.344 21.286.5 13.675.5h-3.031a.37.37 0 0 0-.374.368v6.528a.37.37 0 0 0 .372.368h2.824c3.532 0 6.267 2.689 6.267 6.179l.003 11.65c0 .28.312.457.554.309 4.238-2.599 6.787-7.483 6.787-12.038M63.213.81H57.59v4.76h5.623zM63.133 8.68h-5.462V26.68h5.462zM90.263 15.184l-4.176-.872c-1.406-.317-2.37-.793-2.37-1.983 0-1.089 1.27-1.74 3.052-1.74 2.108 0 3.605.755 4.298 2.534l5.02-1.15c-.965-3.016-3.815-5.475-9.157-5.475-4.82 0-8.072 2.46-8.072 6.07 0 3.372 2.37 4.563 6.345 5.435l3.373.754c1.767.396 2.77.991 2.77 2.221 0 1.38-1.33 2.138-3.373 2.138-2.339 0-4.02-1.034-4.738-3.288L78.336 20.9c.924 3.411 3.856 6.308 9.477 6.308 5.62 0 8.433-2.896 8.433-6.506 0-3.094-2.129-4.722-5.984-5.515zM71.758.81H66.79v19.365c0 4.284 2.076 6.506 6.453 6.506h2.932v-4.483h-2.33c-1.324 0-2.088-.714-2.088-2.062v-9.33h4.417V6.482h-4.417zM107.889 6.497c-5.584 0-10.112 4.635-10.112 10.354 0 5.72 4.528 10.355 10.112 10.355 5.583 0 10.111-4.636 10.111-10.355s-4.528-10.354-10.111-10.354m0 16.04c-3.024 0-5.476-2.546-5.476-5.687 0-3.14 2.452-5.687 5.476-5.687s5.475 2.546 5.475 5.687c0 3.14-2.451 5.688-5.475 5.688M45.557 6.497c-2.148 0-4.651.687-6.289 1.856V.796h-5.42v25.888h5v-2.056l.394-.005.04.052c1.558 1.822 3.933 2.532 6.273 2.532 5.584 0 10.112-4.635 10.112-10.355 0-5.719-4.528-10.354-10.112-10.354zm-.516 16.23c-3.024 0-5.476-2.63-5.476-5.876 0-3.245 2.452-5.875 5.476-5.875s5.74 2.63 5.74 5.875-2.716 5.876-5.74 5.876"/></svg>
